X:129
T:Reel 129
M:4/4
K:Amaj
L:1/8
ED|CA,B,G, E,A,A,2|B,CDE FB,B,D|CA,B,G, E,2A,B,|CEB,G, A,2E,D,|CA,A,C B,G,G,2|B,A,G,A, B,CDB,|CEAG  (3AGF ED|CA,B,G, A,2|CE|A2EA AAEA|A2EA GABG|A2EG AGEA|GEFG AGED|A2EA AGAF|GEEF GABA|cABG AGEF|GEDB, A,2|
